static/favicon.svg

<svg clip-rule="evenodd" fill-rule="evenodd" stroke-linejoin="round" stroke-miterlimit="2" viewBox="0 0 214 263" xmlns="http://www.w3.org/2000/svg"><g transform="matrix(.397855 0 0 .397855 -51.7309 -27.4237)"><path d="m376.733 720.49c7.38 4.307 11.07 6.46 16.277 7.577 4.043.866 9.937.866 13.98 0 5.207-1.117 8.897-3.27 16.277-7.577 64.933-37.88 243.4-156.88 243.4-320.493v-159.415c0-26.65 0-39.975-4.36-51.43-3.85-10.118-10.107-19.147-18.23-26.305-9.194-8.103-21.67-12.782-46.624-22.14l-178.726-67.022c-6.93-2.599-10.394-3.898-13.96-4.413-3.16-.457-6.374-.457-9.534 0-3.566.515-7.03 1.814-13.96 4.413l-178.726 67.022c-24.954 9.358-37.43 14.037-46.625 22.14-8.123 7.158-14.38 16.187-18.23 26.305-4.359 11.455-4.359 24.78-4.359 51.43v159.415c0 163.613 178.466 282.613 243.4 320.493z" fill="#fff" fill-rule="nonzero"/><path d="m376.733 720.49c-64.934-37.88-243.4-156.88-243.4-320.493v-159.415c0-26.65 0-39.975 4.359-51.43 3.85-10.118 10.107-19.147 18.23-26.305 9.195-8.103 21.671-12.782 46.625-22.14l178.726-67.022c6.93-2.599 10.394-3.898 13.96-4.413 3.16-.457 6.374-.457 9.534 0 3.566.515 7.03 1.814 13.96 4.413l178.726 67.022c24.954 9.358 37.43 14.037 46.624 22.14 8.123 7.158 14.38 16.187 18.23 26.305 4.36 11.455 4.36 24.78 4.36 51.43v159.415c0 163.613-178.467 282.613-243.4 320.493-7.38 4.307-11.07 6.46-16.277 7.577-4.043.866-9.937.866-13.98 0-5.207-1.117-8.897-3.27-16.277-7.577zm10.134-17.368c4.779 2.789 6.987 4.56 10.358 5.284 1.605.344 3.945.344 5.55 0 3.371-.724 5.579-2.495 10.358-5.284 37.688-21.986 115.004-72.116 170.755-142.974 35.692-45.364 62.671-99.354 62.671-160.151v-159.415c0-22.915.704-34.429-3.045-44.278-2.689-7.066-7.059-13.373-12.732-18.372-7.905-6.967-18.932-10.351-40.389-18.397l-178.726-67.023c-4.889-1.833-7.258-2.976-9.774-3.339l-.004-.001c-1.252-.181-2.526-.181-3.778 0l-.004.001c-2.516.363-4.885 1.506-9.773 3.339l-178.727 67.023c-21.457 8.046-32.484 11.43-40.39 18.397-5.673 5-10.043 11.305-12.732 18.372-3.748 9.849-3.044 21.362-3.044 44.278v159.415c0 60.797 26.978 114.787 62.671 160.151 55.75 70.858 133.066 120.988 170.755 142.974z" fill="#ff2116"/></g><g fill-rule="nonzero" transform="matrix(1.55912356 0 0 1.55912356 154.076861 -569.601812)"><path d="m-66.352 456.642c-4.13-4.13.338-9.804 12.462-15.829l7.629-3.791 2.972-6.503c1.634-3.576 4.074-9.412 5.421-12.968l2.45-6.465-1.688-4.785c-2.076-5.883-2.816-14.724-1.499-17.903 1.784-4.306 7.626-3.864 9.939.752 1.806 3.605 1.622 10.133-.52 18.367l-1.755 6.75 1.546 2.625c.851 1.443 3.335 4.871 5.521 7.617l4.108 5.111 5.112-.668c16.239-2.119 21.802 1.483 21.802 6.647 0 6.517-12.752 7.055-23.46-.466-2.41-1.692-4.064-3.373-4.064-3.373s-6.708 1.366-10.011 2.256c-3.41.919-5.11 1.495-10.104 3.18 0 0-1.753 2.545-2.894 4.395-4.248 6.882-9.208 12.585-12.75 14.661-3.966 2.324-8.124 2.483-10.217.39zm6.48-2.315c2.321-1.435 7.019-6.991 10.271-12.148l1.316-2.088-5.995 3.014c-9.259 4.656-13.495 9.043-11.293 11.698 1.238 1.491 2.718 1.367 5.701-.476zm60.145-16.883c2.271-1.59 1.941-4.795-.625-6.087-1.998-1.005-3.608-1.212-8.797-1.135-3.189.217-8.316.86-9.185 1.056 0 0 2.817 1.946 4.067 2.662 1.665.951 5.711 2.716 8.665 3.62 2.913.892 4.598.798 5.875-.116zm-24.183-10.051c-1.374-1.445-3.711-4.459-5.192-6.699-1.938-2.541-2.909-4.334-2.909-4.334s-1.416 4.555-2.578 7.296l-3.625 8.96-1.051 2.032s5.587-1.832 8.43-2.574c3.011-.787 9.121-1.988 9.121-1.988zm-7.794-31.254c.351-2.941.499-5.878-.446-7.359-2.621-2.865-5.784-.476-5.248 6.336.18 2.292.75 6.209 1.511 8.623l1.383 4.39.974-3.306c.536-1.819 1.358-5.727 1.826-8.684z" fill="#ff2116"/><path d="m-59.33 475.763h6.704c2.142 0 3.88.205 5.216.615 1.335.397 2.459 1.289 3.372 2.677.912 1.376 1.368 3.035 1.368 4.979 0 1.785-.37 3.319-1.11 4.601-.741 1.283-1.739 2.208-2.995 2.777-1.243.569-3.161.853-5.752.853h-2.321v10.571h-4.482zm4.482 3.471v9.441h2.222c1.983 0 3.352-.37 4.105-1.111.767-.74 1.151-1.943 1.151-3.61 0-1.242-.252-2.247-.754-3.014-.503-.78-1.058-1.256-1.666-1.428-.595-.186-1.541-.278-2.836-.278zm15.61-3.471h6.089c2.948 0 5.302.522 7.06 1.567 1.772 1.044 3.108 2.598 4.007 4.661.912 2.063 1.369 4.35 1.369 6.862 0 2.645-.41 5.005-1.23 7.081-.807 2.063-2.05 3.729-3.729 4.998-1.666 1.27-4.046 1.904-7.14 1.904h-6.426zm4.482 3.59v19.893h1.864c2.605 0 4.496-.899 5.673-2.697 1.177-1.811 1.765-4.225 1.765-7.239 0-6.638-2.479-9.957-7.438-9.957zm18.346-3.59h15.035v3.59h-10.552v8.092h8.449v3.59h-8.449v11.801h-4.483z" fill="#2c2c2c"/></g></svg>

<?xml version="1.0" encoding="UTF-8" standalone="no"?>
<!DOCTYPE svg PUBLIC "-//W3C//DTD SVG 1.1//EN" "http://www.w3.org/Graphics/SVG/1.1/DTD/svg11.dtd">
<svg width="100%" height="100%" viewBox="0 0 214 263" version="1.1" xmlns="http://www.w3.org/2000/svg" xmlns:xlink="http://www.w3.org/1999/xlink" xml:space="preserve" xmlns:serif="http://www.serif.com/" style="fill-rule:evenodd;clip-rule:evenodd;stroke-linejoin:round;stroke-miterlimit:2;">
    <g transform="matrix(0.397855,0,0,0.397855,-51.7309,-27.4237)">
        <path d="M376.733,720.49C384.113,724.797 387.803,726.95 393.01,728.067C397.053,728.933 402.947,728.933 406.99,728.067C412.197,726.95 415.887,724.797 423.267,720.49C488.2,682.61 666.667,563.61 666.667,399.997L666.667,240.582C666.667,213.932 666.667,200.607 662.307,189.152C658.457,179.034 652.2,170.005 644.077,162.847C634.883,154.744 622.407,150.065 597.453,140.707L418.727,73.685C411.797,71.086 408.333,69.787 404.767,69.272C401.607,68.815 398.393,68.815 395.233,69.272C391.667,69.787 388.203,71.086 381.273,73.685L202.547,140.707C177.593,150.065 165.117,154.744 155.922,162.847C147.799,170.005 141.542,179.034 137.692,189.152C133.333,200.607 133.333,213.932 133.333,240.582L133.333,399.997C133.333,563.61 311.799,682.61 376.733,720.49Z" style="fill:white;fill-rule:nonzero;"/>
        <path d="M376.733,720.49C311.799,682.61 133.333,563.61 133.333,399.997L133.333,240.582C133.333,213.932 133.333,200.607 137.692,189.152C141.542,179.034 147.799,170.005 155.922,162.847C165.117,154.744 177.593,150.065 202.547,140.707L381.273,73.685C388.203,71.086 391.667,69.787 395.233,69.272C398.393,68.815 401.607,68.815 404.767,69.272C408.333,69.787 411.797,71.086 418.727,73.685L597.453,140.707C622.407,150.065 634.883,154.744 644.077,162.847C652.2,170.005 658.457,179.034 662.307,189.152C666.667,200.607 666.667,213.932 666.667,240.582L666.667,399.997C666.667,563.61 488.2,682.61 423.267,720.49C415.887,724.797 412.197,726.95 406.99,728.067C402.947,728.933 397.053,728.933 393.01,728.067C387.803,726.95 384.113,724.797 376.733,720.49ZM386.867,703.122C391.646,705.911 393.854,707.682 397.225,708.406C398.83,708.75 401.17,708.75 402.775,708.406C406.146,707.682 408.354,705.911 413.133,703.122C450.821,681.136 528.137,631.006 583.888,560.148C619.58,514.784 646.559,460.794 646.559,399.997L646.559,240.582C646.559,217.667 647.263,206.153 643.514,196.304C640.825,189.238 636.455,182.931 630.782,177.932C622.877,170.965 611.85,167.581 590.393,159.535L411.667,92.512C406.778,90.679 404.409,89.536 401.893,89.173L401.889,89.172C400.637,88.991 399.363,88.991 398.111,89.172L398.107,89.173C395.591,89.536 393.222,90.679 388.334,92.512L209.607,159.535C188.15,167.581 177.123,170.965 169.217,177.932C163.544,182.932 159.174,189.237 156.485,196.304C152.737,206.153 153.441,217.666 153.441,240.582L153.441,399.997C153.441,460.794 180.419,514.784 216.112,560.148C271.862,631.006 349.178,681.136 386.867,703.122Z" style="fill:rgb(255,33,22);"/>
    </g>
    <g transform="matrix(1.4843,0,0,1.4843,151.79,-521.505)">
        <g transform="matrix(1.05041,0,0,1.05041,1.5407,-32.4037)">
            <path d="M-66.352,456.642C-70.482,452.512 -66.014,446.838 -53.89,440.813L-46.261,437.022L-43.289,430.519C-41.655,426.943 -39.215,421.107 -37.868,417.551L-35.418,411.086L-37.106,406.301C-39.182,400.418 -39.922,391.577 -38.605,388.398C-36.821,384.092 -30.979,384.534 -28.666,389.15C-26.86,392.755 -27.044,399.283 -29.186,407.517L-30.941,414.267L-29.395,416.892C-28.544,418.335 -26.06,421.763 -23.874,424.509L-19.766,429.62L-14.654,428.952C1.585,426.833 7.148,430.435 7.148,435.599C7.148,442.116 -5.604,442.654 -16.312,435.133C-18.722,433.441 -20.376,431.76 -20.376,431.76C-20.376,431.76 -27.084,433.126 -30.387,434.016C-33.797,434.935 -35.497,435.511 -40.491,437.196C-40.491,437.196 -42.244,439.741 -43.385,441.591C-47.633,448.473 -52.593,454.176 -56.135,456.252C-60.101,458.576 -64.259,458.735 -66.352,456.642ZM-59.872,454.327C-57.551,452.892 -52.853,447.336 -49.601,442.179L-48.285,440.091L-54.28,443.105C-63.539,447.761 -67.775,452.148 -65.573,454.803C-64.335,456.294 -62.855,456.17 -59.872,454.327ZM0.273,437.444C2.544,435.854 2.214,432.649 -0.352,431.357C-2.35,430.352 -3.96,430.145 -9.149,430.222C-12.338,430.439 -17.465,431.082 -18.334,431.278C-18.334,431.278 -15.517,433.224 -14.267,433.94C-12.602,434.891 -8.556,436.656 -5.602,437.56C-2.689,438.452 -1.004,438.358 0.273,437.444L0.273,437.444ZM-23.91,427.393C-25.284,425.948 -27.621,422.934 -29.102,420.694C-31.04,418.153 -32.011,416.36 -32.011,416.36C-32.011,416.36 -33.427,420.915 -34.589,423.656L-38.214,432.616L-39.265,434.648C-39.265,434.648 -33.678,432.816 -30.835,432.074C-27.824,431.287 -21.714,430.086 -21.714,430.086L-23.91,427.393ZM-31.704,396.139C-31.353,393.198 -31.205,390.261 -32.15,388.78C-34.771,385.915 -37.934,388.304 -37.398,395.116C-37.218,397.408 -36.648,401.325 -35.887,403.739L-34.504,408.129L-33.53,404.823C-32.994,403.004 -32.172,399.096 -31.704,396.139Z" style="fill:rgb(255,33,22);fill-rule:nonzero;"/>
        </g>
        <g transform="matrix(1.05041,0,0,1.05041,1.5407,-32.4037)">
            <path d="M-59.33,475.763L-52.626,475.763C-50.484,475.763 -48.746,475.968 -47.41,476.378C-46.075,476.775 -44.951,477.667 -44.038,479.055C-43.126,480.431 -42.67,482.09 -42.67,484.034C-42.67,485.819 -43.04,487.353 -43.78,488.635C-44.521,489.918 -45.519,490.843 -46.775,491.412C-48.018,491.981 -49.936,492.265 -52.527,492.265L-54.848,492.265L-54.848,502.836L-59.33,502.836L-59.33,475.763ZM-54.848,479.234L-54.848,488.675L-52.626,488.675C-50.643,488.675 -49.274,488.305 -48.521,487.564C-47.754,486.824 -47.37,485.621 -47.37,483.954C-47.37,482.712 -47.622,481.707 -48.124,480.94C-48.627,480.16 -49.182,479.684 -49.79,479.512C-50.385,479.326 -51.331,479.234 -52.626,479.234L-54.848,479.234ZM-39.238,475.763L-33.149,475.763C-30.201,475.763 -27.847,476.285 -26.089,477.33C-24.317,478.374 -22.981,479.928 -22.082,481.991C-21.17,484.054 -20.713,486.341 -20.713,488.853C-20.713,491.498 -21.123,493.858 -21.943,495.934C-22.75,497.997 -23.993,499.663 -25.672,500.932C-27.338,502.202 -29.718,502.836 -32.812,502.836L-39.238,502.836L-39.238,475.763ZM-34.756,479.353L-34.756,499.246L-32.892,499.246C-30.287,499.246 -28.396,498.347 -27.219,496.549C-26.042,494.738 -25.454,492.324 -25.454,489.31C-25.454,482.672 -27.933,479.353 -32.892,479.353L-34.756,479.353ZM-16.41,475.763L-1.375,475.763L-1.375,479.353L-11.927,479.353L-11.927,487.445L-3.478,487.445L-3.478,491.035L-11.927,491.035L-11.927,502.836L-16.41,502.836L-16.41,475.763Z" style="fill:rgb(44,44,44);fill-rule:nonzero;"/>
        </g>
    </g>
</svg>
